office-building-marker-outline.svg

<svg fill="currentColor" viewBox="0 0 24 24"><path d="M15 9h2v2h-2zm2-4h-2v2h2zm-6 10h2v-2h-2zm2-10h-2v2h2zm-2 6h2V9h-2zM9 5H7v2h2zm0 4H7v2h2zm5.55 12H13v-3.5h-2V21H5V3h14v8.03c.71.06 1.39.28 2 .6V1H3v22h12.91c-.41-.56-.91-1.24-1.36-2M7 19h2v-2H7zm2-6H7v2h2zm13 3.5c0 2.6-3.5 6.5-3.5 6.5S15 19.1 15 16.5c0-1.9 1.6-3.5 3.5-3.5s3.5 1.6 3.5 3.5m-2.3.1c0-.6-.6-1.2-1.2-1.2s-1.2.5-1.2 1.2c0 .6.5 1.2 1.2 1.2s1.3-.6 1.2-1.2"/></svg>

<svg  viewBox="0 0 24 24" fill="currentColor"><path  d="M15 9H17V11H15V9M17 5H15V7H17V5M11 15H13V13H11V15M13 5H11V7H13V5M11 11H13V9H11V11M9 5H7V7H9V5M9 9H7V11H9V9M14.55 21H13V17.5H11V21H5V3H19V11.03C19.71 11.09 20.39 11.31 21 11.63V1H3V23H15.91C15.5 22.44 15 21.76 14.55 21M7 19H9V17H7V19M9 13H7V15H9V13M22 16.5C22 19.1 18.5 23 18.5 23S15 19.1 15 16.5C15 14.6 16.6 13 18.5 13S22 14.6 22 16.5M19.7 16.6C19.7 16 19.1 15.4 18.5 15.4S17.3 15.9 17.3 16.6C17.3 17.2 17.8 17.8 18.5 17.8S19.8 17.2 19.7 16.6Z"/></svg>
